X:1
T:Title
%%score 1 ( 2 3 ) { 4 | 5 }
L:1/8
Q:1/4=87
M:3/8
K:G
V:1 treble nm="Strings 1, Soprano"
V:2 treble nm="Grand Piano, Staff-1"
V:3 treble 
V:4 bass nm="Choir Pad, Bass"
V:5 bass 
V:1
 z z D | DEF | G2 D | DEF | G2 B | A2 G | F2 E | D2 D | cBA | A^GA | B2 A | G2 B | BAc | G2 F | %14
 G z D | E^DE | F=F^F | GFG | A^GA | B_B=B | ^cfe | d z B | A2 G | F2 B | A2 G | F2 F | GAc | %27
 B2 A | G3- | G3 |] %30
V:2
 [DG]2 [B,D] | [B,D][CE][A,CDF] | [B,DG]2 [B,D] | [B,D][CE][A,CDF] | [B,DG]2 [DB] | A-[FA][EG] | %6
w: By~Charles~Otto~Arnold,~1916 *||||||
 [DF]2 [CE] | D2 D | [DFA][DGB][DFAc] | [DFAc][D^GB][DFAc] | [DGBd]2 [DFAc] | [DGB]2 z | BA[Ec] | %13
w: |||||||
 [DG]2 [DF] | [DG] z z | [CE] z z | [B,^DF] z z | [B,EG] z z | [EA] z z | B_B[G=B] | cf[GAce] | %21
w: ||||||||
 [FAd] z [DB] | [FA]2 [EG] | [^DF]2 [=DB] | [FA]2 [EG] | [^DF]2 [C=DF] | [B,G][EA][Ec] | %27
w: ||||||
 [DB]2 [FA] | G3- | G3 |] %30
w: |||
V:3
 x3 | x3 | x3 | x3 | x3 | D z z | x3 | x3 | x3 | x3 | x3 | x3 | [CE]2 z | x3 | x3 | x3 | x3 | x3 | %18
 x3 | F2 z | [GA]2 z | x3 | x3 | x3 | x3 | x3 | x3 | x3 | x3 | x3 |] %30
V:4
 B,2 G, | G,3 | G,3 | G,3 | G,2 G, | A,2 B, | A,A,,G, | F,2 z | D,3 | D,3 | G,3 | G,2 z | A,3 | %13
 B,2 C | B, z z | G, z z | B, z z | B, z z | C z z | B,2 B, | A,2 A, | A, z G, | B,2 B, | B,2 G, | %24
 B,2 B, | B,2 A, | G,2 A, | G,B,C | B,3- | B,3 |] %30
V:5
 G,,2 G,, | G,,3 | G,,3 | G,,3 | G,,2 z | .F,^D,E, | z z A,, | D,2 z | z3 | z3 | G,,3 | G,,2 z | %12
 [C,E,]3 | [D,G,]2 [D,A,] | [G,,G,] z z | C, z z | [B,,^D,F,] z z | E, z z | [C,E,A,] z z | %19
 [B,,^D,F,]2 [E,G,] | z z A,, | D, z z | F,^D,E, | B,,2 z | F,^D,E, | B,,2 D, | E,C,A,, | D,2 D, | %28
 G,3- | G,3 |] %30

